X: 16424
T: Hääpolska
R: polka
M: 2/4
K: Gmajor
"G" G3B d2d2|"D" ABcA "G" G2G2|BABc d2B2|G3B d2d2|"D" ABcA "G" G2G2|
BABc d2c2|"C" B2AB "D" c2Bc|"Am" e2dc "D" BAGF|A2F2 "G" G3D:|
|:"G" G3B d2d2|cBAB "Am" cdcB|"D7" AGAB c2BA|
"A7" G2FE "D" F2DF|1 A2d2 "A7" AGFE|"D" D2A2 D4:|2 A2d2 "A7" AGFE|"D" D2B2 "G"G4||

